X:1
T:Killooleet Waltz
C:Megan Wobus
S:Megan Wobus composed 9/1/2003
T:For Seth and Bethany's wedding, September 6, 2003
M:3/4
R:waltz
K:G
(3DEF|: G2 B3 G | F B3 F | =F2 B2 c2 | d3 c BG |
 E2 C3 D | _E2 C3 A, |[1 B,2 B2 c2 | A4 (3DEF :|[2 B,2 G2 F2 | "Fine"G3 ABc ||
|: d3 cBG | d3 cBG | de=f3g | edc4 |
 cd_e2dc | B3 dcB | (A4A) B | A6  :|
W:Copyright 2003 Megan Wobus, PGTPPCATPL AORR
